X: 75
T:Money Musk. JC.073
M:C
L:1/8
Q:100
S:John Clare,Poet,Helpston. (1793-1864)
R:Reel
O:England
A:Northamptonshire
N:
Z:vmp.P. Headford
K:G
e|d>GB>G d>Gc>e|d>GB>G AB/A/ c>e|d>GB>G B>dd>g|e>cA>d B>GG:|!
|:e/f/|g>dB>g d>gB>g|g>dc>g B>gA>f|g>de>g d>gB>g|e>cA>d B.GG:|]
